X:1
T:Win Them One by One
T:Win Them One by One
T:Charles Austin Miles
T:Charles Austin Miles, 1915
T:Public Domain Courtesy of the Cyber Hymnal™
T:Public Domain Courtesy of the Cyber Hymnal™
C:Charles Austin Miles
Z:Public Domain
Z:Courtesy of the Cyber Hymnal™
%%score ( 1 2 ) 3
L:1/8
Q:1/4=110
M:4/4
K:F
V:1 treble 
V:2 treble 
V:3 bass 
V:1
 [CFA]2 [CFAc]2 [CFAc]2 [CFA]2 | [CEGB]2 [CFA]2 G4 [CE]2 | [EGB]2 [EGBd]2 [EGBd]2 [EGB]2 | %3
w: 1.~If to Christ our|on- ly king Men|* re- deemed we|
w: 2.~Side by side we|stand each day, Saved|* are we, but|
w: 3.~On- ly cow- ards|dare re- fuse, Dare|* this gift of|
w: 4.~Not for hope of|great re- ward Turn|* men’s hearts un-|
 [CFAc]2 [CEGB]2 A4 [CF]2 | [CFA]2 [CFAc]2 [CFAc]2 [CFA]2 | [CEGc]2 [CEG]2 [CEG]2 ^F>G | %6
w: strive to bring, Just|* one way this|may be done— We must|
w: lost are they; They|* will come if|we but dare Speak a|
w: God mis- use; Ere|* some friend goes|to his grave, Speak a|
w: to the Lord; Just|* to see a|saved man smile Makes the|
 [CFA]2 [D^FA]2 [D=F=B]2 [DFB]2 | c6 ([CEG]2 [CEG]2) |:"^Refrain" [CEB]2 | %9
w: win them one by|one. * *||
w: word backed up by|prayer. So *||
w: word his soul to|save. If *||
w: ef- fort well worth-|while. * *||
 [A,CA]2 G>F [A,CA]2 G>F | A6 (3([CF][CF][CF] [CF]2) [A,CF]2 | [A,CA]2 G>F [A,CA]2 G>F |1 %12
w: |||
w: you bring the one next to|you, And * * * I’ll|* bring the one next to|
w: you’ll bring the one next to|you, And * * * I|* bring the one next to|
w: |||
 B6 (3([CE][CE][CE] [CE]2) [CFA]2 [CEGB]2 B>BBG-GG | [CFAc]2 c>c cA-[C^DA][CDA] | %14
w: ||
w: me; In * * * all kinds of wea- ther, we’ll * all|work to- ge- ther, And see what|
w: me, In * * * ~ ~ ~ ~ ~ ~ * ~|~ ~ ~ ~ ~ ~ ~|
w: ||
 [CEG]2 [CEGc]2 [D^FA]2 [D=F=B]2 | c6 ([CEG]2 [CFA]2) :|2 BB-[E-G-B][EGA] [CEG]2 [EGBd]2 || %17
w: |||
w: can be done. *|||
w: ~ ~ ~ no|time~at all *|* we’ll have * them all,|
w: |||
 c3 A- A [CFAc]2 [CFA]2 | Gd- [DGd]2 Ac- [CFc]2 | [B,FA]2 [B,CEG]2 [A,CF]4 |] %20
w: |||
w: |||
w: So win * them, win|them, one * by one. *||
w: |||
V:2
 x8 | x4 [CE]2 x4 | x8 | x4 [CF]2 x4 | x8 | x6 [CE]2 | x8 | [CEG]2 x8 |: x2 | %9
 x2 [A,C]2 x/ [A,C]2 x3/2 | [CF]2 x10 | x2 [A,C]2 x/ [A,C]2 x3/2 |1 %12
 ([CEG]2 x2 [CEG]2) [CE]2 [CE]2 x10 | x2 [CFA]2 [CF]2 x2 | x8 | [CEG]2 x8 :|2 [EG]2 x6 || %17
 [CFA]2 [CF]2 x5 | D2 x [CF]2 x3 | x8 |] %20
V:3
 [F,,F,]2 [C,,C,]2 [F,,F,]2 [C,,C,]2 | [E,,E,]2 [C,,C,]2 ([E,,E,]2 [C,,C,]2) x2 | %2
 [E,,E,]2 [C,,C,]2 [E,,E,]2 [C,,C,]2 | [F,,F,]2 [C,,C,]2 ([F,,F,]2 [C,,C,]2) x2 | %4
 [F,,F,]2 [C,,C,]2 [F,,F,]2 [C,,C,]2 | [E,,E,]2 [C,,C,]2 [E,,E,]2 [C,,C,]2 | %6
 [F,,F,]2 [D,,D,]2 [G,,G,]2 [G,,G,]2 | ([C,,C,]2 [B,,B,]2 [A,,A,]2) x4 |: [G,,G,]2 | %9
 [F,,F,]2 [C,,C,]2 [F,,F,]2 [C,,C,]2 | ([F,,F,]2 [C,,C,]2 [F,,F,]2) [C,,C,]2 x4 | %11
 [F,,F,]2 [C,,C,]2 [F,,F,]2 [C,,C,]2 |1 %12
 ([E,,E,]2 [C,,C,]2 [E,,E,]2) [C,,C,]2 [E,,E,]2 [C,,C,]2 [E,,E,]2 [C,,C,]2 x4 | %13
 [F,,F,]2 [C,,C,]2 [F,,F,]2 [^F,,^F,]2 | [G,,G,]2 [C,,C,]2 [D,,D,]2 [G,,G,]2 | %15
 ([C,,C,]2 [B,,B,]2 [A,,A,]2) x4 :|2 [E,,E,]2 [C,,C,]2 [E,,E,]2 [C,,C,]2 || %17
 [F,,F,]2 [C,,C,]2 [F,,F,]2 [F,,F,]2 x | [B,,B,]2 [B,,B,]2 [F,,F,]2 [F,,F,]2 | %19
 [C,,C,]2 [C,,C,]2 [F,,F,]4 |] %20

